X: 110
T:Goat on the Hill
% Nottingham Music Database
S:Neil Campbell (MacBeat), via EF
Y:AB
M:6/8
K:Am
P:A
c/2d/2|"Am"eAA c2d|"Am"eag e2d|"Am"eAA "D7"c2d|"G"BGG Gcd|
"Am"eAA c2d|"Am"eag e2d|"F"eAA "G"BGG|"Am"A3 A2:|
P:B
E|"Am"EAA Acc|"Em"GBB Bee|"Am"EAA "D7"ABc|"G"BGG G3|
"Am"EAA Acc|"Em"GBB Bee|"F"cAA "G"BGG|"Am"A3 A2:|
"Am"E/2G/2|AEE A2B|ced c2B|AEE A2B|dBB dcB|
AEE A2B|ced c2B|AEE GDD|E3 E2:|
"Am"A|Acc cee|Bdd dgg|Acc def|gdd dcB|
Acc cee|Bdd dBB|AFF GDD|E3 E2:|
"Am"A/2B/2|ccc c2B|AcB A2B|cBA ^F2D|Bdd dcB|
ccc c2B|AcB A2B|ccc dBB|c3 c2:|
"Am"A|cee eaa|dgg gbb|cee edc|Bdd d3|
cee eaa|dgg gbb|fcc dBB|c3 c2:|


